icons/issue-in-progress-16.svg

<svg width="16" height="16" viewBox="0 0 16 16" fill="none" xmlns="http://www.w3.org/2000/svg">
<path d="M4.46967 5.21967C4.76256 4.92678 5.23744 4.92678 5.53033 5.21967L7.78033 7.46967C8.07322 7.76256 8.07322 8.23744 7.78033 8.53033L5.53033 10.7803C5.23744 11.0732 4.76256 11.0732 4.46967 10.7803C4.17678 10.4874 4.17678 10.0126 4.46967 9.71967L6.18934 8L4.46967 6.28033C4.17678 5.98744 4.17678 5.51256 4.46967 5.21967Z" fill="black"/>
<path d="M9.53033 5.21967C9.23744 4.92678 8.76256 4.92678 8.46967 5.21967C8.17678 5.51256 8.17678 5.98744 8.46967 6.28033L10.1893 8L8.46967 9.71967C8.17678 10.0126 8.17678 10.4874 8.46967 10.7803C8.76256 11.0732 9.23744 11.0732 9.53033 10.7803L11.7803 8.53033C12.0732 8.23744 12.0732 7.76256 11.7803 7.46967L9.53033 5.21967Z" fill="black"/>
<path fill-rule="evenodd" clip-rule="evenodd" d="M8 16C12.4183 16 16 12.4183 16 8C16 3.58172 12.4183 0 8 0C3.58172 0 0 3.58172 0 8C0 12.4183 3.58172 16 8 16ZM8 14.5C11.5899 14.5 14.5 11.5899 14.5 8C14.5 4.41015 11.5899 1.5 8 1.5C4.41015 1.5 1.5 4.41015 1.5 8C1.5 11.5899 4.41015 14.5 8 14.5Z" fill="black"/>
</svg>

<svg xmlns="http://www.w3.org/2000/svg" width="16" height="16" viewBox="0 0 16 16"><path d="M4.47 5.22a.75.75 0 011.06 0l2.25 2.25a.75.75 0 010 1.06l-2.25 2.25a.75.75 0 11-1.06-1.06L6.19 8 4.47 6.28a.75.75 0 010-1.06zm5.06 0a.75.75 0 00-1.06 1.06L10.19 8 8.47 9.72a.75.75 0 101.06 1.06l2.25-2.25a.75.75 0 000-1.06L9.53 5.22z"/><path fill-rule="evenodd" d="M8 16A8 8 0 108 0a8 8 0 000 16zm0-1.5a6.5 6.5 0 100-13 6.5 6.5 0 000 13z"/></svg>
